build/images/icon-quantity.svg

<svg width="16" height="16" viewBox="0 0 16 16" fill="none" xmlns="http://www.w3.org/2000/svg">
<path class="less" d="M6.392 15.9999C6.39193 14.3624 5.76838 12.7248 4.5218 11.4782C3.27508 10.2315 1.63748 9.60794 0 9.60794L1.225e-06 6C2.56194 6.00006 5.12414 6.97515 7.0745 8.9255C9.02486 10.8759 9.99987 13.438 10 16L6.392 15.9999Z" fill="#025BB1"/>
<path d="M1.71097e-06 12L0 16L4 16C3.99975 14.9765 3.60924 13.9528 2.82822 13.1718C2.04714 12.3907 1.02351 12.0003 1.71097e-06 12Z" fill="#025BB1"/>
<path class="more" d="M8.707 7.29293C11.1075 9.69341 12.3079 12.8465 12.3076 15.9999L16 16C16.0001 11.9006 14.4397 7.80148 11.3191 4.68092C8.19845 1.56022 4.09933 -0.000134128 0 8.6476e-09L6.60833e-05 3.69231C3.15339 3.69204 6.30659 4.89252 8.707 7.29293Z" fill="#025BB1"/>
</svg>

<svg width="16" height="16" fill="none" xmlns="http://www.w3.org/2000/svg"><path class="less" d="M6.392 16a6.376 6.376 0 00-1.87-4.522A6.375 6.375 0 000 9.608V6c2.562 0 5.124.975 7.074 2.925A9.974 9.974 0 0110 16H6.392z" fill="#025BB1"/><path d="M0 12v4h4c0-1.024-.39-2.047-1.172-2.828A3.989 3.989 0 000 12z" fill="#025BB1"/><path class="more" d="M8.707 7.293c2.4 2.4 3.6 5.554 3.6 8.707H16c0-4.1-1.56-8.199-4.68-11.32A15.957 15.957 0 000 0v3.692c3.153 0 6.307 1.2 8.707 3.6z" fill="#025BB1"/></svg>
